X:5094
T:Pheasant Feathers
O:england
M:5/4
C:Andy Hornby
A:Lancaster
N:1989
K:G
g2f d2f e2 c2 | d2B G2c B2 G2 | A2F D2c B2 G2 | \
M:6/4
A2G F2A G2 B2 d2 | \
M:5/4
g2f d2f e2 c2 | d2B G2c B2 G2 | A2F D2c B2 G2 | \
M:6/4
A2G F2A G6 :: \
M:6/4
DE FG AF G2 B2 d2 | AB cd ec d2 e2 f2 | \
g2f d2f e2 c4 | d2c B2d A6 |\
M:5/4
g2f d2f e2 c2 | d2B G2c B2 G2 | A2F D2c B2 G2 | \
M:6/4
A2G F2A G6 :|
W:Copyright (C) Grian Music


